X: 29722
T: Numedalshalling
R: polka
M: 2/4
K: Amixolydian
E|A2A>F|G2G>E|G>A B<c|B>A E2|
A2A>F|G2G>E|G>A B<c|B>A E2|
A2A>F|G2G>E|G>A B<c|B>A E2||
A2 (3ABc|B2 (3BAG|A2 (3ABc|B>A E2|
A2 (3ABc|B2 (3BAG|A2 (3ABc|B>A E2|
A2 (3ABc|B2 (3BAG|A2 (3ABc|B>A (3EFG|
A2A>c|c>B (3BAG|A2 (3ABc|B>A (3EFG|A2 Az|
B2B>c|B>AB2|B>A G2|G>F A<c|B2B>c|B>AB2|
B>A G2|G>F A<c|B2B>c|B>AB2|B>A G2|G>F F<D|
E2E>F|E>D E<F||E2B2|B>A B<c|B2 B>c|
B>A A<F|G2 E2|(3EFG E>D|E2 E>F|E<D E<F||
E2 B2|B>A B<c|B2 B>c|B>A A<F|G2 E2|(3EFG E>D|E2 E2|

